ОкеанВКонцеДороги/svg/small-lines.svg

<svg width="46" height="45" viewBox="0 0 46 45" fill="none" xmlns="http://www.w3.org/2000/svg">
<g opacity="0.78">
<path d="M-2.31243e-07 28.9578C0.00215281 28.8168 0.00544448 28.6758 0.00962444 28.535C5.27951 23.5368 8.79486 18.4592 12.0952 12.9659C14.1515 9.54333 16.1288 5.95815 18.3939 2.12939C18.5457 2.06797 18.6975 2.00716 18.8498 1.94845C16.5049 5.89722 14.4734 9.59062 12.3526 13.1206C8.99645 18.7068 5.41411 23.8711 -2.31243e-07 28.9578Z" fill="white"/>
<path d="M-2.31243e-07 28.9578C0.00215281 28.8168 0.00544448 28.6758 0.00962444 28.535C5.27951 23.5368 8.79486 18.4592 12.0952 12.9659C14.1515 9.54333 16.1288 5.95815 18.3939 2.12939C18.5457 2.06797 18.6975 2.00716 18.8498 1.94845C16.5049 5.89722 14.4734 9.59062 12.3526 13.1206C8.99645 18.7068 5.41411 23.8711 -2.31243e-07 28.9578Z" fill="url(#paint0_linear_309_100)"/>
<path d="M0.0454486 31.0853C6.45781 25.5485 10.5273 19.8742 14.2513 13.6809C16.6298 9.72532 18.8722 5.55377 21.4944 1.07C21.6316 1.03169 21.7695 0.996586 21.907 0.960358C19.223 5.53635 16.9393 9.79094 14.5074 13.8353C10.7369 20.1056 6.6095 25.8525 0.0684405 31.4611C0.0596336 31.3358 0.0526372 31.2105 0.0454486 31.0853Z" fill="white"/>
<path d="M0.0454486 31.0853C6.45781 25.5485 10.5273 19.8742 14.2513 13.6809C16.6298 9.72532 18.8722 5.55377 21.4944 1.07C21.6316 1.03169 21.7695 0.996586 21.907 0.960358C19.223 5.53635 16.9393 9.79094 14.5074 13.8353C10.7369 20.1056 6.6095 25.8525 0.0684405 31.4611C0.0596336 31.3358 0.0526372 31.2105 0.0454486 31.0853Z" fill="url(#paint1_linear_309_100)"/>
<path d="M0.174874 32.622C6.79131 27.1781 10.952 21.5626 14.7388 15.3514C17.4988 10.8244 20.0678 5.9745 23.2425 0.642626C23.3759 0.614114 23.509 0.584831 23.6425 0.558234C20.4086 5.97432 17.8065 10.8973 14.9958 15.5075C11.1658 21.7895 6.95009 27.4714 0.215102 32.9788C0.200483 32.8599 0.188017 32.7409 0.174874 32.622Z" fill="white"/>
<path d="M0.174874 32.622C6.79131 27.1781 10.952 21.5626 14.7388 15.3514C17.4988 10.8244 20.0678 5.9745 23.2425 0.642626C23.3759 0.614114 23.509 0.584831 23.6425 0.558234C20.4086 5.97432 17.8065 10.8973 14.9958 15.5075C11.1658 21.7895 6.95009 27.4714 0.215102 32.9788C0.200483 32.8599 0.188017 32.7409 0.174874 32.622Z" fill="url(#paint2_linear_309_100)"/>
<path d="M0.369889 34.0633C7.91012 28.0742 12.4704 21.8205 16.5267 14.9247C19.1898 10.3975 21.6414 5.58613 24.5757 0.389344C24.7019 0.368452 24.8281 0.347752 24.9544 0.328546C21.9736 5.59575 19.4945 10.4728 16.7861 15.0771C12.6913 22.0384 8.07763 28.3538 0.424329 34.4017C0.404797 34.2891 0.388075 34.176 0.369889 34.0633Z" fill="white"/>
<path d="M0.369889 34.0633C7.91012 28.0742 12.4704 21.8205 16.5267 14.9247C19.1898 10.3975 21.6414 5.58613 24.5757 0.389344C24.7019 0.368452 24.8281 0.347752 24.9544 0.328546C21.9736 5.59575 19.4945 10.4728 16.7861 15.0771C12.6913 22.0384 8.07763 28.3538 0.424329 34.4017C0.404797 34.2891 0.388075 34.176 0.369889 34.0633Z" fill="url(#paint3_linear_309_100)"/>
<path d="M0.626145 35.4388C8.64568 29.1773 13.8221 22.4525 18.4064 15.0866C21.3413 10.3709 24.0411 5.38324 27.0888 0.0840523C27.2088 0.0747633 27.3288 0.066753 27.4487 0.0589508C24.3655 5.41454 21.6408 10.4577 18.6613 15.245C14.0406 22.6695 8.81414 29.4514 0.695547 35.764C0.671406 35.6558 0.649019 35.5472 0.626145 35.4388Z" fill="white"/>
<path d="M0.626145 35.4388C8.64568 29.1773 13.8221 22.4525 18.4064 15.0866C21.3413 10.3709 24.0411 5.38324 27.0888 0.0840523C27.2088 0.0747633 27.3288 0.066753 27.4487 0.0589508C24.3655 5.41454 21.6408 10.4577 18.6613 15.245C14.0406 22.6695 8.81414 29.4514 0.695547 35.764C0.671406 35.6558 0.649019 35.5472 0.626145 35.4388Z" fill="url(#paint4_linear_309_100)"/>
<path d="M1.09824 37.3561C9.23029 31.3379 14.6271 24.7596 19.3966 17.4502C22.9163 12.056 26.096 6.26174 29.7794 2.37804e-07C29.8949 0.00168802 30.0104 0.00328203 30.1258 0.0063309C26.4065 6.32295 23.2016 12.1687 19.6476 17.6153C14.8447 24.9758 9.40264 31.6027 1.18755 37.6631C1.15739 37.5608 1.12724 37.4586 1.09824 37.3561Z" fill="white"/>
<path d="M1.09824 37.3561C9.23029 31.3379 14.6271 24.7596 19.3966 17.4502C22.9163 12.056 26.096 6.26174 29.7794 2.37804e-07C29.8949 0.00168802 30.0104 0.00328203 30.1258 0.0063309C26.4065 6.32295 23.2016 12.1687 19.6476 17.6153C14.8447 24.9758 9.40264 31.6027 1.18755 37.6631C1.15739 37.5608 1.12724 37.4586 1.09824 37.3561Z" fill="url(#paint5_linear_309_100)"/>
<path d="M1.49671 38.6517C1.46317 38.5512 1.43134 38.4503 1.39895 38.3496C10.6965 31.4746 17.1152 23.7484 22.703 15.3529C25.9415 10.4872 28.9044 5.39637 31.9861 0.115179C32.0956 0.125035 32.205 0.135587 32.3144 0.146664C29.2079 5.47014 26.2223 10.606 22.9523 15.519C17.3335 23.9611 10.872 31.7366 1.49671 38.6517Z" fill="white"/>
<path d="M1.49671 38.6517C1.46317 38.5512 1.43134 38.4503 1.39895 38.3496C10.6965 31.4746 17.1152 23.7484 22.703 15.3529C25.9415 10.4872 28.9044 5.39637 31.9861 0.115179C32.0956 0.125035 32.205 0.135587 32.3144 0.146664C29.2079 5.47014 26.2223 10.606 22.9523 15.519C17.3335 23.9611 10.872 31.7366 1.49671 38.6517Z" fill="url(#paint6_linear_309_100)"/>
<path d="M1.78969 39.4873C9.664 33.7495 15.5259 27.2902 20.7938 20.1065C25.2474 14.0331 29.2819 7.43988 33.7494 0.327419C33.8574 0.343747 33.9653 0.360903 34.0731 0.378426C29.58 7.53017 25.523 14.1639 21.035 20.2841C15.7371 27.5087 9.83586 34.0075 1.89903 39.7782C1.86221 39.6813 1.82542 39.5844 1.78969 39.4873Z" fill="white"/>
<path d="M1.78969 39.4873C9.664 33.7495 15.5259 27.2902 20.7938 20.1065C25.2474 14.0331 29.2819 7.43988 33.7494 0.327419C33.8574 0.343747 33.9653 0.360903 34.0731 0.378426C29.58 7.53017 25.523 14.1639 21.035 20.2841C15.7371 27.5087 9.83586 34.0075 1.89903 39.7782C1.86221 39.6813 1.82542 39.5844 1.78969 39.4873Z" fill="url(#paint7_linear_309_100)"/>
<path d="M2.02807 40.1131C11.5798 33.381 18.6667 25.6786 24.8735 17.2763C28.7587 12.0168 32.3 6.47862 35.8877 0.7324C35.9917 0.756059 36.0959 0.779028 36.1996 0.80381C32.5937 6.58045 29.0311 12.1527 25.1156 17.4534C18.8811 25.8933 11.7547 33.6338 2.14271 40.3976C2.10421 40.3027 2.06551 40.2081 2.02807 40.1131Z" fill="white"/>
<path d="M2.02807 40.1131C11.5798 33.381 18.6667 25.6786 24.8735 17.2763C28.7587 12.0168 32.3 6.47862 35.8877 0.7324C35.9917 0.756059 36.0959 0.779028 36.1996 0.80381C32.5937 6.58045 29.0311 12.1527 25.1156 17.4534C18.8811 25.8933 11.7547 33.6338 2.14271 40.3976C2.10421 40.3027 2.06551 40.2081 2.02807 40.1131Z" fill="url(#paint8_linear_309_100)"/>
<path d="M2.58154 41.4252C10.5776 36.0635 16.8237 29.9743 22.4485 23.117C27.8384 16.546 32.6551 9.27532 37.8972 1.26369C37.9973 1.29399 38.0974 1.32413 38.1972 1.3555C32.9345 9.39896 28.0935 16.7087 22.6805 23.3079C18.7161 28.1409 14.4419 32.5945 9.46779 36.6826C15.3934 32.0943 20.3627 27.086 24.8919 21.6578C29.9919 15.5454 34.5333 8.89947 39.2537 1.71079C39.3503 1.74522 39.4468 1.78004 39.543 1.81549C34.8054 9.03214 30.2447 15.7117 25.1227 21.8505C18.9214 29.2827 11.8976 35.9227 2.7464 41.7811C2.691 41.6625 2.63522 41.5442 2.58154 41.4252Z" fill="white"/>
<path d="M2.58154 41.4252C10.5776 36.0635 16.8237 29.9743 22.4485 23.117C27.8384 16.546 32.6551 9.27532 37.8972 1.26369C37.9973 1.29399 38.0974 1.32413 38.1972 1.3555C32.9345 9.39896 28.0935 16.7087 22.6805 23.3079C18.7161 28.1409 14.4419 32.5945 9.46779 36.6826C15.3934 32.0943 20.3627 27.086 24.8919 21.6578C29.9919 15.5454 34.5333 8.89947 39.2537 1.71079C39.3503 1.74522 39.4468 1.78004 39.543 1.81549C34.8054 9.03214 30.2447 15.7117 25.1227 21.8505C18.9214 29.2827 11.8976 35.9227 2.7464 41.7811C2.691 41.6625 2.63522 41.5442 2.58154 41.4252Z" fill="url(#paint9_linear_309_100)"/>
<path d="M3.22878 42.7689C15.0293 35.7119 23.068 27.6437 29.7183 18.7067C33.6096 13.4773 37.0232 7.95396 40.4379 2.16036C40.5313 2.19823 40.624 2.23777 40.717 2.27661C37.2906 8.09116 33.8622 13.6389 29.9586 18.8848C23.2844 27.854 15.2136 35.9532 3.36853 43.0344C3.32192 42.9458 3.27439 42.8578 3.22878 42.7689Z" fill="white"/>
<path d="M3.22878 42.7689C15.0293 35.7119 23.068 27.6437 29.7183 18.7067C33.6096 13.4773 37.0232 7.95396 40.4379 2.16036C40.5313 2.19823 40.624 2.23777 40.717 2.27661C37.2906 8.09116 33.8622 13.6389 29.9586 18.8848C23.2844 27.854 15.2136 35.9532 3.36853 43.0344C3.32192 42.9458 3.27439 42.8578 3.22878 42.7689Z" fill="url(#paint10_linear_309_100)"/>
<path d="M3.72808 43.6962C3.67929 43.6089 3.62852 43.5228 3.58072 43.4351C16.7385 35.9373 25.5532 27.3559 32.6621 17.9091C36.2322 13.165 39.372 8.20359 42.4159 3.04923C42.5056 3.09358 42.595 3.13879 42.6843 3.18407C39.632 8.35329 36.4819 13.3324 32.9018 18.0899C25.7646 27.5743 16.9167 36.1811 3.72808 43.6962Z" fill="white"/>
<path d="M3.72808 43.6962C3.67929 43.6089 3.62852 43.5228 3.58072 43.4351C16.7385 35.9373 25.5532 27.3559 32.6621 17.9091C36.2322 13.165 39.372 8.20359 42.4159 3.04923C42.5056 3.09358 42.595 3.13879 42.6843 3.18407C39.632 8.35329 36.4819 13.3324 32.9018 18.0899C25.7646 27.5743 16.9167 36.1811 3.72808 43.6962Z" fill="url(#paint11_linear_309_100)"/>
<path d="M4.09065 44.3281C4.03986 44.2422 3.98825 44.1566 3.93821 44.07C19.665 35.2287 29.8787 24.8917 37.742 13.8836C40.0613 10.6368 42.1773 7.33243 44.1691 3.99011C44.2552 4.0402 44.3406 4.09168 44.4263 4.14268C42.43 7.49243 40.3099 10.8053 37.9862 14.0584C30.0949 25.1056 19.8479 35.4686 4.09065 44.3281Z" fill="white"/>
<path d="M4.09065 44.3281C4.03986 44.2422 3.98825 44.1566 3.93821 44.07C19.665 35.2287 29.8787 24.8917 37.742 13.8836C40.0613 10.6368 42.1773 7.33243 44.1691 3.99011C44.2552 4.0402 44.3406 4.09168 44.4263 4.14268C42.43 7.49243 40.3099 10.8053 37.9862 14.0584C30.0949 25.1056 19.8479 35.4686 4.09065 44.3281Z" fill="url(#paint12_linear_309_100)"/>
<path d="M4.42879 44.8884C4.37611 44.8036 4.32321 44.7187 4.27128 44.6332C20.657 35.3578 31.6448 24.3558 40.0763 12.7997C42.0028 10.1593 43.7965 7.49044 45.4903 4.80596C45.5739 4.86064 45.6566 4.91656 45.7396 4.97213C44.0434 7.66034 42.2479 10.3338 40.3189 12.9777C31.8614 24.5694 20.8427 35.5954 4.42879 44.8884Z" fill="white"/>
<path d="M4.42879 44.8884C4.37611 44.8036 4.32321 44.7187 4.27128 44.6332C20.657 35.3578 31.6448 24.3558 40.0763 12.7997C42.0028 10.1593 43.7965 7.49044 45.4903 4.80596C45.5739 4.86064 45.6566 4.91656 45.7396 4.97213C44.0434 7.66034 42.2479 10.3338 40.3189 12.9777C31.8614 24.5694 20.8427 35.5954 4.42879 44.8884Z" fill="url(#paint13_linear_309_100)"/>
</g>
<defs>
<linearGradient id="paint0_linear_309_100" x1="8.59959" y1="53.3771" x2="55.1317" y2="0.308339" gradientUnits="userSpaceOnUse">
<stop offset="0.225413" stop-color="#E091BE" stop-opacity="0.78"/>
<stop offset="0.521429" stop-color="#726DD8"/>
<stop offset="1" stop-color="#E0BE91" stop-opacity="0.69"/>
</linearGradient>
<linearGradient id="paint1_linear_309_100" x1="8.59959" y1="53.3771" x2="55.1317" y2="0.308339" gradientUnits="userSpaceOnUse">
<stop offset="0.225413" stop-color="#E091BE" stop-opacity="0.78"/>
<stop offset="0.521429" stop-color="#726DD8"/>
<stop offset="1" stop-color="#E0BE91" stop-opacity="0.69"/>
</linearGradient>
<linearGradient id="paint2_linear_309_100" x1="8.59959" y1="53.3771" x2="55.1317" y2="0.308339" gradientUnits="userSpaceOnUse">
<stop offset="0.225413" stop-color="#E091BE" stop-opacity="0.78"/>
<stop offset="0.521429" stop-color="#726DD8"/>
<stop offset="1" stop-color="#E0BE91" stop-opacity="0.69"/>
</linearGradient>
<linearGradient id="paint3_linear_309_100" x1="8.59959" y1="53.3771" x2="55.1317" y2="0.308339" gradientUnits="userSpaceOnUse">
<stop offset="0.225413" stop-color="#E091BE" stop-opacity="0.78"/>
<stop offset="0.521429" stop-color="#726DD8"/>
<stop offset="1" stop-color="#E0BE91" stop-opacity="0.69"/>
</linearGradient>
<linearGradient id="paint4_linear_309_100" x1="8.59959" y1="53.3771" x2="55.1317" y2="0.308339" gradientUnits="userSpaceOnUse">
<stop offset="0.225413" stop-color="#E091BE" stop-opacity="0.78"/>
<stop offset="0.521429" stop-color="#726DD8"/>
<stop offset="1" stop-color="#E0BE91" stop-opacity="0.69"/>
</linearGradient>
<linearGradient id="paint5_linear_309_100" x1="8.59959" y1="53.3771" x2="55.1317" y2="0.308339" gradientUnits="userSpaceOnUse">
<stop offset="0.225413" stop-color="#E091BE" stop-opacity="0.78"/>
<stop offset="0.521429" stop-color="#726DD8"/>
<stop offset="1" stop-color="#E0BE91" stop-opacity="0.69"/>
</linearGradient>
<linearGradient id="paint6_linear_309_100" x1="8.59959" y1="53.3771" x2="55.1317" y2="0.308339" gradientUnits="userSpaceOnUse">
<stop offset="0.225413" stop-color="#E091BE" stop-opacity="0.78"/>
<stop offset="0.521429" stop-color="#726DD8"/>
<stop offset="1" stop-color="#E0BE91" stop-opacity="0.69"/>
</linearGradient>
<linearGradient id="paint7_linear_309_100" x1="8.59959" y1="53.3771" x2="55.1317" y2="0.308339" gradientUnits="userSpaceOnUse">
<stop offset="0.225413" stop-color="#E091BE" stop-opacity="0.78"/>
<stop offset="0.521429" stop-color="#726DD8"/>
<stop offset="1" stop-color="#E0BE91" stop-opacity="0.69"/>
</linearGradient>
<linearGradient id="paint8_linear_309_100" x1="8.59959" y1="53.3771" x2="55.1317" y2="0.308339" gradientUnits="userSpaceOnUse">
<stop offset="0.225413" stop-color="#E091BE" stop-opacity="0.78"/>
<stop offset="0.521429" stop-color="#726DD8"/>
<stop offset="1" stop-color="#E0BE91" stop-opacity="0.69"/>
</linearGradient>
<linearGradient id="paint9_linear_309_100" x1="8.59959" y1="53.3771" x2="55.1317" y2="0.308339" gradientUnits="userSpaceOnUse">
<stop offset="0.225413" stop-color="#E091BE" stop-opacity="0.78"/>
<stop offset="0.521429" stop-color="#726DD8"/>
<stop offset="1" stop-color="#E0BE91" stop-opacity="0.69"/>
</linearGradient>
<linearGradient id="paint10_linear_309_100" x1="8.59959" y1="53.3771" x2="55.1317" y2="0.308339" gradientUnits="userSpaceOnUse">
<stop offset="0.225413" stop-color="#E091BE" stop-opacity="0.78"/>
<stop offset="0.521429" stop-color="#726DD8"/>
<stop offset="1" stop-color="#E0BE91" stop-opacity="0.69"/>
</linearGradient>
<linearGradient id="paint11_linear_309_100" x1="8.59959" y1="53.3771" x2="55.1317" y2="0.308339" gradientUnits="userSpaceOnUse">
<stop offset="0.225413" stop-color="#E091BE" stop-opacity="0.78"/>
<stop offset="0.521429" stop-color="#726DD8"/>
<stop offset="1" stop-color="#E0BE91" stop-opacity="0.69"/>
</linearGradient>
<linearGradient id="paint12_linear_309_100" x1="8.59959" y1="53.3771" x2="55.1317" y2="0.308339" gradientUnits="userSpaceOnUse">
<stop offset="0.225413" stop-color="#E091BE" stop-opacity="0.78"/>
<stop offset="0.521429" stop-color="#726DD8"/>
<stop offset="1" stop-color="#E0BE91" stop-opacity="0.69"/>
</linearGradient>
<linearGradient id="paint13_linear_309_100" x1="8.59959" y1="53.3771" x2="55.1317" y2="0.308339" gradientUnits="userSpaceOnUse">
<stop offset="0.225413" stop-color="#E091BE" stop-opacity="0.78"/>
<stop offset="0.521429" stop-color="#726DD8"/>
<stop offset="1" stop-color="#E0BE91" stop-opacity="0.69"/>
</linearGradient>
</defs>
</svg>

<svg xmlns="http://www.w3.org/2000/svg" width="46" height="45" fill="none" viewBox="0 0 46 45"><g opacity=".78"><path fill="#fff" d="M0 28.958q.003-.212.01-.423c5.27-4.998 8.785-10.076 12.085-15.57 2.057-3.422 4.034-7.007 6.299-10.836q.228-.092.456-.18c-2.345 3.948-4.377 7.642-6.497 11.172C8.996 18.707 5.414 23.87 0 28.958"/><path fill="url(#a)" d="M0 28.958q.003-.212.01-.423c5.27-4.998 8.785-10.076 12.085-15.57 2.057-3.422 4.034-7.007 6.299-10.836q.228-.092.456-.18c-2.345 3.948-4.377 7.642-6.497 11.172C8.996 18.707 5.414 23.87 0 28.958"/><path fill="#fff" d="M.045 31.085c6.413-5.536 10.482-11.21 14.206-17.404 2.379-3.956 4.621-8.127 7.243-12.611q.207-.056.413-.11c-2.684 4.576-4.968 8.83-7.4 12.875-3.77 6.27-7.897 12.017-14.439 17.626z"/><path fill="url(#b)" d="M.045 31.085c6.413-5.536 10.482-11.21 14.206-17.404 2.379-3.956 4.621-8.127 7.243-12.611q.207-.056.413-.11c-2.684 4.576-4.968 8.83-7.4 12.875-3.77 6.27-7.897 12.017-14.439 17.626z"/><path fill="#fff" d="M.175 32.622c6.616-5.444 10.777-11.06 14.564-17.27 2.76-4.528 5.329-9.378 8.503-14.71l.4-.084c-3.233 5.416-5.835 10.34-8.646 14.95C11.166 21.79 6.95 27.47.216 32.978q-.023-.177-.041-.356"/><path fill="url(#c)" d="M.175 32.622c6.616-5.444 10.777-11.06 14.564-17.27 2.76-4.528 5.329-9.378 8.503-14.71l.4-.084c-3.233 5.416-5.835 10.34-8.646 14.95C11.166 21.79 6.95 27.47.216 32.978q-.023-.177-.041-.356"/><path fill="#fff" d="M.37 34.063c7.54-5.989 12.1-12.243 16.157-19.138C19.19 10.398 21.64 5.586 24.576.389l.378-.06c-2.98 5.267-5.46 10.144-8.168 14.748C12.691 22.038 8.078 28.354.424 34.402q-.028-.17-.054-.339"/><path fill="url(#d)" d="M.37 34.063c7.54-5.989 12.1-12.243 16.157-19.138C19.19 10.398 21.64 5.586 24.576.389l.378-.06c-2.98 5.267-5.46 10.144-8.168 14.748C12.691 22.038 8.078 28.354.424 34.402q-.028-.17-.054-.339"/><path fill="#fff" d="M.626 35.439c8.02-6.262 13.196-12.986 17.78-20.352C21.341 10.37 24.041 5.383 27.09.084q.18-.014.36-.025c-3.084 5.356-5.808 10.399-8.788 15.186C14.041 22.67 8.814 29.451.696 35.764q-.036-.162-.07-.325"/><path fill="url(#e)" d="M.626 35.439c8.02-6.262 13.196-12.986 17.78-20.352C21.341 10.37 24.041 5.383 27.09.084q.18-.014.36-.025c-3.084 5.356-5.808 10.399-8.788 15.186C14.041 22.67 8.814 29.451.696 35.764q-.036-.162-.07-.325"/><path fill="#fff" d="M1.098 37.356C9.23 31.338 14.628 24.76 19.397 17.45 22.917 12.056 26.096 6.262 29.779 0l.347.006c-3.72 6.317-6.924 12.163-10.478 17.61-4.803 7.36-10.245 13.987-18.46 20.047z"/><path fill="url(#f)" d="M1.098 37.356C9.23 31.338 14.628 24.76 19.397 17.45 22.917 12.056 26.096 6.262 29.779 0l.347.006c-3.72 6.317-6.924 12.163-10.478 17.61-4.803 7.36-10.245 13.987-18.46 20.047z"/><path fill="#fff" d="M1.497 38.652q-.05-.151-.098-.302c9.298-6.875 15.716-14.602 21.304-22.997 3.239-4.866 6.201-9.957 9.283-15.238q.165.014.328.032c-3.106 5.323-6.092 10.459-9.362 15.372-5.619 8.442-12.08 16.218-21.455 23.133"/><path fill="url(#g)" d="M1.497 38.652q-.05-.151-.098-.302c9.298-6.875 15.716-14.602 21.304-22.997 3.239-4.866 6.201-9.957 9.283-15.238q.165.014.328.032c-3.106 5.323-6.092 10.459-9.362 15.372-5.619 8.442-12.08 16.218-21.455 23.133"/><path fill="#fff" d="M1.79 39.487c7.874-5.738 13.736-12.197 19.004-19.38C25.247 14.033 29.282 7.44 33.749.326l.324.051c-4.493 7.152-8.55 13.786-13.038 19.906-5.298 7.225-11.2 13.724-19.136 19.494z"/><path fill="url(#h)" d="M1.79 39.487c7.874-5.738 13.736-12.197 19.004-19.38C25.247 14.033 29.282 7.44 33.749.326l.324.051c-4.493 7.152-8.55 13.786-13.038 19.906-5.298 7.225-11.2 13.724-19.136 19.494z"/><path fill="#fff" d="M2.028 40.113c9.552-6.732 16.639-14.434 22.846-22.837C28.758 12.016 32.3 6.48 35.888.732l.312.072c-3.606 5.776-7.169 11.349-11.084 16.65-6.235 8.44-13.361 16.18-22.973 22.944z"/><path fill="url(#i)" d="M2.028 40.113c9.552-6.732 16.639-14.434 22.846-22.837C28.758 12.016 32.3 6.48 35.888.732l.312.072c-3.606 5.776-7.169 11.349-11.084 16.65-6.235 8.44-13.361 16.18-22.973 22.944z"/><path fill="#fff" d="M2.582 41.425c7.996-5.361 14.242-11.45 19.867-18.308 5.39-6.571 10.206-13.842 15.448-21.853l.3.091C32.934 9.4 28.093 16.71 22.68 23.309c-3.964 4.833-8.238 9.286-13.212 13.375 5.925-4.589 10.895-9.597 15.424-15.025 5.1-6.113 9.641-12.759 14.362-19.947l.289.104c-4.738 7.217-9.298 13.897-14.42 20.036-6.202 7.432-13.225 14.072-22.377 19.93z"/><path fill="url(#j)" d="M2.582 41.425c7.996-5.361 14.242-11.45 19.867-18.308 5.39-6.571 10.206-13.842 15.448-21.853l.3.091C32.934 9.4 28.093 16.71 22.68 23.309c-3.964 4.833-8.238 9.286-13.212 13.375 5.925-4.589 10.895-9.597 15.424-15.025 5.1-6.113 9.641-12.759 14.362-19.947l.289.104c-4.738 7.217-9.298 13.897-14.42 20.036-6.202 7.432-13.225 14.072-22.377 19.93z"/><path fill="#fff" d="M3.229 42.769c11.8-7.057 19.839-15.125 26.49-24.062 3.89-5.23 7.304-10.753 10.719-16.547l.279.117c-3.426 5.814-6.855 11.362-10.758 16.608-6.675 8.969-14.745 17.068-26.59 24.15q-.071-.134-.14-.266"/><path fill="url(#k)" d="M3.229 42.769c11.8-7.057 19.839-15.125 26.49-24.062 3.89-5.23 7.304-10.753 10.719-16.547l.279.117c-3.426 5.814-6.855 11.362-10.758 16.608-6.675 8.969-14.745 17.068-26.59 24.15q-.071-.134-.14-.266"/><path fill="#fff" d="M3.728 43.696q-.075-.13-.147-.26c13.157-7.499 21.972-16.08 29.081-25.527 3.57-4.744 6.71-9.705 9.754-14.86l.268.135c-3.052 5.17-6.202 10.148-9.782 14.906-7.137 9.484-15.985 18.091-29.174 25.606"/><path fill="url(#l)" d="M3.728 43.696q-.075-.13-.147-.26c13.157-7.499 21.972-16.08 29.081-25.527 3.57-4.744 6.71-9.705 9.754-14.86l.268.135c-3.052 5.17-6.202 10.148-9.782 14.906-7.137 9.484-15.985 18.091-29.174 25.606"/><path fill="#fff" d="M4.09 44.328q-.076-.128-.152-.258c15.727-8.841 25.94-19.178 33.804-30.186 2.32-3.247 4.435-6.552 6.427-9.894q.13.076.257.153c-1.996 3.35-4.116 6.662-6.44 9.915-7.891 11.048-18.138 21.41-33.895 30.27"/><path fill="url(#m)" d="M4.09 44.328q-.076-.128-.152-.258c15.727-8.841 25.94-19.178 33.804-30.186 2.32-3.247 4.435-6.552 6.427-9.894q.13.076.257.153c-1.996 3.35-4.116 6.662-6.44 9.915-7.891 11.048-18.138 21.41-33.895 30.27"/><path fill="#fff" d="m4.429 44.888-.158-.255C20.657 35.358 31.645 24.356 40.076 12.8a143 143 0 0 0 5.414-7.994l.25.166a143 143 0 0 1-5.421 8.006c-8.458 11.591-19.476 22.617-35.89 31.91"/><path fill="url(#n)" d="m4.429 44.888-.158-.255C20.657 35.358 31.645 24.356 40.076 12.8a143 143 0 0 0 5.414-7.994l.25.166a143 143 0 0 1-5.421 8.006c-8.458 11.591-19.476 22.617-35.89 31.91"/></g><defs><linearGradient id="a" x1="8.6" x2="55.132" y1="53.377" y2=".308" gradientUnits="userSpaceOnUse"><stop offset=".225" stop-color="#e091be" stop-opacity=".78"/><stop offset=".521" stop-color="#726dd8"/><stop offset="1" stop-color="#e0be91" stop-opacity=".69"/></linearGradient><linearGradient id="b" x1="8.6" x2="55.132" y1="53.377" y2=".308" gradientUnits="userSpaceOnUse"><stop offset=".225" stop-color="#e091be" stop-opacity=".78"/><stop offset=".521" stop-color="#726dd8"/><stop offset="1" stop-color="#e0be91" stop-opacity=".69"/></linearGradient><linearGradient id="c" x1="8.6" x2="55.132" y1="53.377" y2=".308" gradientUnits="userSpaceOnUse"><stop offset=".225" stop-color="#e091be" stop-opacity=".78"/><stop offset=".521" stop-color="#726dd8"/><stop offset="1" stop-color="#e0be91" stop-opacity=".69"/></linearGradient><linearGradient id="d" x1="8.6" x2="55.132" y1="53.377" y2=".308" gradientUnits="userSpaceOnUse"><stop offset=".225" stop-color="#e091be" stop-opacity=".78"/><stop offset=".521" stop-color="#726dd8"/><stop offset="1" stop-color="#e0be91" stop-opacity=".69"/></linearGradient><linearGradient id="e" x1="8.6" x2="55.132" y1="53.377" y2=".308" gradientUnits="userSpaceOnUse"><stop offset=".225" stop-color="#e091be" stop-opacity=".78"/><stop offset=".521" stop-color="#726dd8"/><stop offset="1" stop-color="#e0be91" stop-opacity=".69"/></linearGradient><linearGradient id="f" x1="8.6" x2="55.132" y1="53.377" y2=".308" gradientUnits="userSpaceOnUse"><stop offset=".225" stop-color="#e091be" stop-opacity=".78"/><stop offset=".521" stop-color="#726dd8"/><stop offset="1" stop-color="#e0be91" stop-opacity=".69"/></linearGradient><linearGradient id="g" x1="8.6" x2="55.132" y1="53.377" y2=".308" gradientUnits="userSpaceOnUse"><stop offset=".225" stop-color="#e091be" stop-opacity=".78"/><stop offset=".521" stop-color="#726dd8"/><stop offset="1" stop-color="#e0be91" stop-opacity=".69"/></linearGradient><linearGradient id="h" x1="8.6" x2="55.132" y1="53.377" y2=".308" gradientUnits="userSpaceOnUse"><stop offset=".225" stop-color="#e091be" stop-opacity=".78"/><stop offset=".521" stop-color="#726dd8"/><stop offset="1" stop-color="#e0be91" stop-opacity=".69"/></linearGradient><linearGradient id="i" x1="8.6" x2="55.132" y1="53.377" y2=".308" gradientUnits="userSpaceOnUse"><stop offset=".225" stop-color="#e091be" stop-opacity=".78"/><stop offset=".521" stop-color="#726dd8"/><stop offset="1" stop-color="#e0be91" stop-opacity=".69"/></linearGradient><linearGradient id="j" x1="8.6" x2="55.132" y1="53.377" y2=".308" gradientUnits="userSpaceOnUse"><stop offset=".225" stop-color="#e091be" stop-opacity=".78"/><stop offset=".521" stop-color="#726dd8"/><stop offset="1" stop-color="#e0be91" stop-opacity=".69"/></linearGradient><linearGradient id="k" x1="8.6" x2="55.132" y1="53.377" y2=".308" gradientUnits="userSpaceOnUse"><stop offset=".225" stop-color="#e091be" stop-opacity=".78"/><stop offset=".521" stop-color="#726dd8"/><stop offset="1" stop-color="#e0be91" stop-opacity=".69"/></linearGradient><linearGradient id="l" x1="8.6" x2="55.132" y1="53.377" y2=".308" gradientUnits="userSpaceOnUse"><stop offset=".225" stop-color="#e091be" stop-opacity=".78"/><stop offset=".521" stop-color="#726dd8"/><stop offset="1" stop-color="#e0be91" stop-opacity=".69"/></linearGradient><linearGradient id="m" x1="8.6" x2="55.132" y1="53.377" y2=".308" gradientUnits="userSpaceOnUse"><stop offset=".225" stop-color="#e091be" stop-opacity=".78"/><stop offset=".521" stop-color="#726dd8"/><stop offset="1" stop-color="#e0be91" stop-opacity=".69"/></linearGradient><linearGradient id="n" x1="8.6" x2="55.132" y1="53.377" y2=".308" gradientUnits="userSpaceOnUse"><stop offset=".225" stop-color="#e091be" stop-opacity=".78"/><stop offset=".521" stop-color="#726dd8"/><stop offset="1" stop-color="#e0be91" stop-opacity=".69"/></linearGradient></defs></svg>
